X:17
T: Megizentem a szeretém anyjának
O:Bözöd (Udvarhely), Józsa Zsuzsa / Koncz Mózesné, 1903
M:5/8
L:1/4
Q: "Lento, parlando"
K:Bb
g/f/ f/ c | a/a/ a/ g | a/ (f/ f3/) | c3/ z | 
a/a/ a/g | a/g/ fe/ |  d/(c/ c3/) | G3/ z | 
(f3/ f/)e/ | g/((d/ d3/){c}) | f/e/ d/c | d/(B/ B3/) | F3/ z | 
f/g/ (g/{a/})g |  f/e/ d/c | G/(G/G3/) | G/ z z | 

